src/icons/main-folder-open.svg

<svg enable-background="new 0 0 14 10" viewBox="0 0 14 10" xmlns="http://www.w3.org/2000/svg"><path d="m14 4.4c0-.3-.3-.6-.7-.6h-9.8c-.3 0-.6.2-.7.4l-2.1 5v.2c0 .3.3.6.7.6h9.8c.3 0 .6-.2.7-.4l2.1-5c0-.1 0-.2 0-.2zm-11.9-.9c.1-.2.4-.4.7-.4h9.8v-1.2c0-.3-.3-.6-.7-.6h-6l-1.2-1.1c-.1-.1-.3-.2-.5-.2h-3.5c-.4 0-.7.3-.7.6v7.7z" fill="#4d5969"/></svg>

<?xml version="1.0" encoding="utf-8"?>
<!-- Generator: Adobe Illustrator 20.1.0, SVG Export Plug-In . SVG Version: 6.00 Build 0)  -->
<svg version="1.1" id="Layer_1" xmlns="http://www.w3.org/2000/svg" xmlns:xlink="http://www.w3.org/1999/xlink" x="0px" y="0px"
	 viewBox="0 0 14 10" style="enable-background:new 0 0 14 10;" xml:space="preserve">
<style type="text/css">
	.st0{fill:#4D5969;}
</style>
<title>HDL/Icon/Standard/folder_open</title>
<desc>Created with Sketch.</desc>
<g id="Colors">
	<g id="Main-Icons" transform="translate(-1121.000000, -222.000000)">
		<g id="Folder-Open" transform="translate(1100.000000, 207.000000)">
			<g id="HDL_x2F_Icon_x2F_Standard_x2F_folder_x5F_open" transform="translate(21.000000, 15.000000)">
				<path id="Shape" class="st0" d="M14,4.4c0-0.3-0.3-0.6-0.7-0.6H3.5c-0.3,0-0.6,0.2-0.7,0.4h0l-2.1,5h0c0,0.1,0,0.1,0,0.2
					C0.7,9.7,1,10,1.4,10h9.8c0.3,0,0.6-0.2,0.7-0.4h0l2.1-5h0C14,4.5,14,4.4,14,4.4z M2.1,3.5c0.1-0.2,0.4-0.4,0.7-0.4h9.8V1.9
					c0-0.3-0.3-0.6-0.7-0.6h-6L4.7,0.2C4.6,0.1,4.4,0,4.2,0H0.7C0.3,0,0,0.3,0,0.6v7.7L2.1,3.5L2.1,3.5z"/>
			</g>
		</g>
	</g>
</g>
</svg>
